material/.icons/material/alert-rhombus-outline.svg

<svg xmlns="http://www.w3.org/2000/svg" viewBox="0 0 24 24"><path d="M21.54 10.8l-8.3-8.3a1.63 1.63 0 00-2.4 0l-8.3 8.3a1.63 1.63 0 000 2.4l8.3 8.3a1.63 1.63 0 002.4 0l8.3-8.3a1.83 1.83 0 000-2.4m-1.2 1.2L12 20.3 3.74 12 12 3.7M13 17h-2v-2h2m0-2h-2V7h2z"/></svg>

<?xml version="1.0" encoding="UTF-8"?><!DOCTYPE svg PUBLIC "-//W3C//DTD SVG 1.1//EN" "http://www.w3.org/Graphics/SVG/1.1/DTD/svg11.dtd"><svg xmlns="http://www.w3.org/2000/svg" xmlns:xlink="http://www.w3.org/1999/xlink" version="1.1" id="mdi-alert-rhombus-outline" width="24" height="24" viewBox="0 0 24 24"><path d="M21.54 10.8L13.24 2.5A1.63 1.63 0 0 0 10.84 2.5L2.54 10.8A1.63 1.63 0 0 0 2.54 13.2L10.84 21.5A1.63 1.63 0 0 0 13.24 21.5L21.54 13.2A1.83 1.83 0 0 0 21.54 10.8M20.34 12L12 20.3L3.74 12L12 3.7M13 17H11V15H13M13 13H11V7H13Z" /></svg>
